icons/evolvere-blue-folders-flat-vivid-dark-fallback/apps/64/libreoffice-base.svg

<svg xmlns="http://www.w3.org/2000/svg" viewBox="0 0 64 64"><g color="#000"><path d="m0 4v30 28l2 2h30 30l2-2v-28-30h-32-32" fill="#a736a9"/><path d="m2 0l-2 1v3h32 32v-3l-2-1h-30-30" fill="#de64e9"/></g><path d="m0 3v3l2-2" fill="#e78eef"/><path d="m64 6l-2-2 2-1z" fill="#c14cc7"/><path d="m8 11v46h48v-32l-14-14h-34m38 0l10 10v-10h-10m-35 3h30l12 12v28h-42v-40m12.5 21c-4.694 0-8.5 1.343-8.5 3 0 1.657 3.806 3 8.5 3 4.694 0 8.5-1.343 8.5-3 0-1.657-3.806-3-8.5-3m-8.5 7v2h7v-2h-7m10 0v2h7v-2h-7m-10 3v2h7v-2h-7m10 0v2h7v-2h-7m-10 3v2h7v-2h-7m10 0v2h7v-2h-7" fill="#f6cef6"/></svg>

<?xml version="1.0" encoding="UTF-8" standalone="no"?>
<!-- Created with Inkscape (http://www.inkscape.org/) -->

<svg
   xmlns:dc="http://purl.org/dc/elements/1.1/"
   xmlns:cc="http://creativecommons.org/ns#"
   xmlns:rdf="http://www.w3.org/1999/02/22-rdf-syntax-ns#"
   xmlns:svg="http://www.w3.org/2000/svg"
   xmlns="http://www.w3.org/2000/svg"
   xmlns:sodipodi="http://sodipodi.sourceforge.net/DTD/sodipodi-0.dtd"
   xmlns:inkscape="http://www.inkscape.org/namespaces/inkscape"
   width="64"
   height="64"
   id="svg13094"
   version="1.1"
   inkscape:version="0.91+devel r"
   sodipodi:docname="libreoffice-base.svg">
  <sodipodi:namedview
     id="base"
     pagecolor="#ffffff"
     bordercolor="#666666"
     borderopacity="1.0"
     inkscape:pageopacity="0"
     inkscape:pageshadow="2"
     inkscape:zoom="11.313709"
     inkscape:cx="36.122995"
     inkscape:cy="32.711009"
     inkscape:document-units="px"
     inkscape:current-layer="svg13094"
     showgrid="true"
     inkscape:snap-bbox="true"
     inkscape:bbox-paths="true"
     inkscape:bbox-nodes="true"
     inkscape:snap-bbox-edge-midpoints="true"
     inkscape:snap-bbox-midpoints="true"
     inkscape:object-paths="true"
     inkscape:snap-intersection-paths="true"
     inkscape:object-nodes="true"
     inkscape:snap-smooth-nodes="true"
     inkscape:snap-midpoints="true"
     inkscape:snap-object-midpoints="true"
     inkscape:snap-center="true"
     showguides="true"
     inkscape:guide-bbox="true"
     inkscape:window-width="1920"
     inkscape:window-height="1023"
     inkscape:window-x="-10"
     inkscape:window-y="35"
     inkscape:window-maximized="1"
     inkscape:snap-global="true"
     fit-margin-top="0"
     fit-margin-left="0"
     fit-margin-right="0"
     fit-margin-bottom="0"
     showborder="true"
     inkscape:showpageshadow="false"
     inkscape:snap-page="true">
    <inkscape:grid
       type="xygrid"
       id="grid3075"
       empspacing="5"
       visible="true"
       enabled="true"
       snapvisiblegridlinesonly="true"
       originx="0px"
       originy="18px" />
  </sodipodi:namedview>
  <defs
     id="defs13096" />
  <metadata
     id="metadata13099">
    <rdf:RDF>
      <cc:Work
         rdf:about="">
        <dc:format>image/svg+xml</dc:format>
        <dc:type
           rdf:resource="http://purl.org/dc/dcmitype/StillImage" />
        <dc:title></dc:title>
      </cc:Work>
    </rdf:RDF>
  </metadata>
  <path
     inkscape:connector-curvature="0"
     style="color:#000000;fill:#a736a9;fill-opacity:1;fill-rule:nonzero;stroke:none;stroke-width:2.28571415;marker:none;visibility:visible;display:inline;overflow:visible;enable-background:accumulate"
     d="m 0,4 0,30 0,28 2,2 30,0 30,0 2,-2 L 64,34 64,4 32,4 0,4 z"
     id="path3443" />
  <path
     inkscape:connector-curvature="0"
     style="color:#000000;fill:#de64e9;fill-opacity:1;fill-rule:nonzero;stroke:none;stroke-width:2.28571415000000000;marker:none;visibility:visible;display:inline;overflow:visible;enable-background:accumulate"
     d="M 2,0 0,1 0,4 32,4 64,4 64,1 62,0 32,0 2,0 z"
     id="path3447" />
  <path
     style="fill:#e78eef;fill-opacity:1;fill-rule:nonzero"
     d="M 0,3 0,6 2,4 Z"
     id="path4298"
     inkscape:connector-curvature="0"
     sodipodi:nodetypes="cccc" />
  <path
     d="M 64,6 62,4 64,3 z"
     id="path3028"
     style="fill:#c14cc7;fill-opacity:1"
     inkscape:connector-curvature="0" />
  <g
     id="g3043"
     inkscape:export-filename="folder.png"
     inkscape:export-xdpi="90"
     inkscape:export-ydpi="90"
     transform="translate(-0.625,0.082283)" />
  <g
     id="scalable"
     transform="matrix(1.0385892,0,0,1.0385892,1214.7222,1878.8121)"
     inkscape:label="#g3701"
     style="fill:#ffffff" />
  <path
     style="fill:#f6cef6;fill-opacity:1"
     d="M 8 11 L 8 57 L 56 57 L 56 25 L 42 11 L 8 11 z M 46 11 L 56 21 L 56 11 L 46 11 z M 11 14 L 41 14 L 53 26 L 53 54 L 11 54 L 11 14 z M 23.5 35 C 18.80558 35 15 36.343146 15 38 C 15 39.656854 18.80558 41 23.5 41 C 28.19442 41 32 39.656854 32 38 C 32 36.343146 28.19442 35 23.5 35 z M 15 42 L 15 44 L 22 44 L 22 42 L 15 42 z M 25 42 L 25 44 L 32 44 L 32 42 L 25 42 z M 15 45 L 15 47 L 22 47 L 22 45 L 15 45 z M 25 45 L 25 47 L 32 47 L 32 45 L 25 45 z M 15 48 L 15 50 L 22 50 L 22 48 L 15 48 z M 25 48 L 25 50 L 32 50 L 32 48 L 25 48 z "
     id="path3940" />
</svg>
